packages/foundations/assets/icons/functional/images/editing/minus.svg

<svg xmlns="http://www.w3.org/2000/svg" width="32" height="32" fill="none"><path fill="#1A1C1F" fill-rule="evenodd" d="M6.693 15.067c-.268.095-.587.43-.66.694-.131.476.198 1.064.67 1.195.14.039 3.064.056 9.324.056 8.706-.001 9.129-.005 9.333-.098.267-.121.537-.423.608-.68.142-.513-.207-1.074-.738-1.188-.195-.042-2.902-.059-9.299-.057-7.64.002-9.057.014-9.238.078"/></svg>

<svg width="32" height="32" viewBox="0 0 32 32" fill="none" xmlns="http://www.w3.org/2000/svg"><path d="M6.693 15.067 C 6.425 15.162,6.106 15.497,6.033 15.761 C 5.902 16.237,6.231 16.825,6.703 16.956 C 6.843 16.995,9.767 17.012,16.027 17.012 C 24.733 17.011,25.156 17.007,25.360 16.914 C 25.627 16.793,25.897 16.491,25.968 16.234 C 26.110 15.721,25.761 15.160,25.230 15.046 C 25.035 15.004,22.328 14.987,15.931 14.989 C 8.291 14.991,6.874 15.003,6.693 15.067 " fill="#1A1C1F" stroke="none" fill-rule="evenodd"></path></svg>
